X: 41365
T: Turquoise Girl
R: hornpipe
M: 4/4
K: Eminor
EB GA-Ac BG|Ae cB z AFG|EB GA-Ac BG|Ae dc BA FG|
EB GA-Ac BG|Ae cB z AFG|EB AB cB AB|1 eB fB gB fB:|2 eB fB g2 z2:]
eB fB gB eB|(3fga ge fa gz|fB gB aB eB|(3fga ge fg ez|
eB fB gB eB|(3fga ge fa gz|(3fga ge fa gz|(3fga ge fg ez||

